X:89
T:Widow Machree
S:American Veteran Fifer #89
C:J.L. Blatchley, Port Crane, N.Y.
M:6/8
L:1/8
Q:1/8=300
K:D 
%%MIDI program 72
%%MIDI transpose 8
%%MIDI ratio 3 1
A | ABc dzd | efd b3 | a3 f3 | efd B2A |
ABc dcd | efd b3 | a3 f3 | egf d2 :|
|: f | gfg bag | fef agf | efe ede | fed B2A |
ABc dcd | efd b3 | a3 f3 | edc d2 :|



